X: 192
T: The Rookery
C: Vincent Broderick
R: reel
M: C|
L: 1/8
K:Dmix
|:"G"BGAG "C"EGDG|EGDG EGDE|"G"G2 Bd"C" e2 dg|e2 dg "Em"edBA|
"G"G2 GA B2 Bd|"C"e2 ed efga|"G"bgag "C"egge|"G"dBAc BG G2:|
|:"G"b2 gb "D"a2 ga|"G"b2 gb "D"aged|"G"G2 Bd "C"e2 dg|e2 dg "Em"edBA|
"G"G2 GA B2 Bd|"C"e2 ed efga|"G"bgag "C"egge|"G"dBAc BG G2:|


